X: 1
T:Dutches of Athole's Strathspey
R:Strathspey
M:C
K:D
d|:\
A>df>d e>d "tr"B2| A>dfd a>d "tr"f2|\
g>b fd"tr"B2| A>df>d "tr"e2d2::
a>fd'>f g/f/e/d/ "tr"B2| a>fd'>f a/f/a/b/d'2|\
"tr"b>ad'f g/f/e/d/ "tr"B2| [AD]>d f<d "tr"e2d2::
.D.d.f.d .B.e.c.A| Ddfd adfd| \
gb/g/ f.d'/f/ .B.e.c.A | D>dfd "tr"e2d2::
(d/e/f/g/ a)<d d'<e c<A| d/e/f/g/ a<f d'<f a>f|\
gb/g/ fd'/f/ BecA| D>d f>d e2d2:|
